docs/assets/images/svg/icon-yuotube.svg

<svg width="28" height="28" viewBox="0 0 28 28" fill="inherit" xmlns="http://www.w3.org/2000/svg">
<path fill-rule="evenodd" clip-rule="evenodd" d="M23.3903 6.51997C24.4182 6.80006 25.2288 7.61994 25.5055 8.66007C26.0197 10.5599 25.9999 14.52 25.9999 14.52C25.9999 14.52 25.9999 18.4599 25.5057 20.3599C25.2288 21.3999 24.4184 22.2199 23.3903 22.4998C21.5122 23 14 23 14 23C14 23 6.50731 23 4.60961 22.48C3.58148 22.1999 2.77105 21.3799 2.4942 20.3399C2 18.4599 2 14.5 2 14.5C2 14.5 2 10.5599 2.4942 8.66007C2.77087 7.62012 3.60125 6.78005 4.60943 6.50015C6.48753 6 13.9998 6 13.9998 6C13.9998 6 21.5122 6 23.3903 6.51997ZM17.8552 14.5008L11.6082 18.1408V10.8608L17.8552 14.5008Z"/>
</svg>

<svg width="28" height="28" fill="inherit" xmlns="http://www.w3.org/2000/svg"><path fill-rule="evenodd" clip-rule="evenodd" d="M23.39 6.52a3.025 3.025 0 012.116 2.14c.514 1.9.494 5.86.494 5.86s0 3.94-.494 5.84a3.025 3.025 0 01-2.116 2.14C21.512 23 14 23 14 23s-7.493 0-9.39-.52a3.025 3.025 0 01-2.116-2.14C2 18.46 2 14.5 2 14.5s0-3.94.494-5.84C2.771 7.62 3.601 6.78 4.61 6.5 6.488 6 14 6 14 6s7.513 0 9.391.52zm-5.535 7.98l-6.247 3.64v-7.28l6.247 3.64z"/></svg>
